Pub Folder/attach/sib.svg

<svg width="16" height="16" xmlns="http://www.w3.org/2000/svg" fill-rule="evenodd" clip-rule="evenodd" stroke-linejoin="round" stroke-miterlimit="2"><g transform="matrix(.02832 0 0 .02884 .763 1)"><path d="M432.102 485.516H79V0h273.656l79.446 79.449v406.067z" fill="url(#_Linear1)" fill-rule="nonzero"/><clipPath id="a"><path d="M432.102 485.516H79V0h273.656l79.446 79.449v406.067z" clip-rule="nonzero"/></clipPath><g clip-path="url(#a)"><path d="M352.656 0v79.449h79.446L352.656 0z" fill="#7826e7" fill-rule="nonzero"/><path d="M353.225-15.596l.707.041.706.071.701.102.696.133.689.163.682.194.671.222.661.253.649.28.635.309.621.337.605.363.588.39.569.415.55.439.53.463.508.486 79.445 79.449.482.504.459.524.434.544.41.562.384.579.357.595.33.61.303.624.274.637.245.648.215.657.186.667.155.674.125.68.094.685.064.688.032.69.001.692-.031.69-.061.688-.092.686-.123.68-.154.674-.184.667-.213.659-.244.648-.272.638-.3.624-.329.611-.356.597-.382.58-.408.563-.433.545-.457.525-.481.505-.502.483-.524.462-.545.438-.563.413-.582.389-.598.364-.614.337-.629.31-.643.282-.654.254-.665.225-.675.196-.683.167-.689.137-.696.107-.699.076-.702.046-.703.015h-79.446l-.713-.016-.711-.047-.709-.078-.704-.11-.699-.14-.691-.171-.683-.202-.673-.231-.662-.261-.649-.289-.635-.318-.621-.346-.603-.373-.586-.398-.568-.425-.547-.448-.526-.473-.505-.495-.481-.517-.457-.538-.432-.557-.406-.576-.379-.593-.352-.609-.324-.624-.295-.637-.265-.65-.236-.661-.205-.671-.174-.679-.143-.686-.112-.692-.079-.696-.048-.699-.016-.7V0l.015-.696.048-.695.079-.692.11-.688.142-.682.172-.676.203-.667.233-.658.262-.647.292-.635.32-.621.348-.607.376-.59.401-.574.428-.556.452-.536.476-.516.499-.495.521-.472.543-.449.561-.424.581-.4.598-.374.615-.347.63-.32.643-.292.657-.264.667-.235.678-.205.686-.175.694-.145.699-.114.704-.084.707-.053.709-.021.709.009zm-.569 95.045h79.446L352.656 0v79.449z"/><path d="M269.27 152.588c5.73 0 10.42 4.793 10.42 14.556 0 19.702-16.5 35.678-30.22 47.926-.521.355-.869.71-1.216.71-.521 0-.868-.71-1.042-2.13-.695-4.615-1.042-10.65-1.042-16.33 0-27.691 12.505-44.732 23.1-44.732zm-6.948 149.104c-.347-1.953-.174-2.485 1.216-2.485h.695c14.068 1.242 25.704 13.312 25.704 28.933 0 11.183-6.6 20.235-16.326 25.205-.868.355-1.39.71-1.736.71-.695 0-.869-.532-1.042-1.775l-8.51-50.588zm-11.984-28.223c.521 3.372.521 3.195-2.605 4.26-15.284 5.325-25.184 19.348-25.184 34.435 0 15.976 8.163 27.336 19.974 31.419 1.389.532 3.473 1.065 4.689 1.065 1.39 0 2.084-.888 2.084-1.953 0-1.242-1.39-1.775-2.605-2.307-7.295-3.195-12.505-10.828-12.505-18.993 0-10.118 6.773-17.75 17.368-20.768.868-.178 1.563-.355 2.084-.355.869 0 1.216.532 1.39 1.775l8.684 52.896c.347 1.953.173 1.953-2.432 2.485-2.779.533-6.252.888-9.726.888-30.394 0-50.02-17.218-50.02-41.891 0-30.176 21.71-48.992 42.725-66.387.695-.533 1.216-.888 1.563-.888.522 0 .695.533.869 1.598l3.647 22.72zm2.605-27.159c-.347-2.13 0-2.307 1.042-3.372 18.758-17.928 33-40.471 33-67.63 0-15.442-4.169-30.707-11.29-41.358-2.605-3.905-7.12-8.875-9.03-8.875-2.432 0-7.816 4.615-11.29 8.52-12.852 14.556-17.02 36.744-17.02 55.204 0 10.295 1.215 21.833 2.43 29.11.348 2.13.522 2.486-1.562 4.26-25.01 21.124-51.584 46.507-51.584 82.363 0 30.886 20.668 60.174 63.22 60.174 3.995 0 8.51-.355 11.984-1.065.695-.178 1.042-.178 1.39-.178.694 0 1.042.355 1.215 1.775 2.085 11.893 4.69 27.336 4.69 35.679 0 26.27-17.368 29.465-27.615 29.465-9.38 0-13.895-2.84-13.895-5.147 0-1.243 1.563-1.775 5.558-3.018 5.384-1.597 11.636-6.39 11.636-16.685 0-9.763-6.078-18.106-16.673-18.106-11.636 0-18.584 9.408-18.584 20.413 0 11.538 6.774 28.933 33 28.933 11.636 0 34.215-5.325 34.215-35.5 0-10.118-3.127-26.981-5.037-37.986-.347-2.13-.174-1.953 2.258-3.018 17.542-7.1 29.178-22.188 29.178-42.246 0-22.72-16.326-42.778-41.857-42.778-4.516 0-4.516 0-5.037-3.195l-4.342-25.739z" fill="#fff" fill-rule="nonzero"/><path d="M255.729 139.076c78.255 0 141.798 62.408 141.798 139.266 0 76.858-63.543 139.266-141.798 139.266-78.256 0-141.798-62.408-141.798-139.266 0-76.858 63.542-139.266 141.798-139.266zm0 15.177c69.731 0 126.365 55.603 126.365 124.09 0 68.485-56.634 124.107-126.365 124.107s-126.346-55.622-126.346-124.108 56.615-124.089 126.346-124.089z" fill="#fff"/></g><path d="M354.407-17.254l1.733.255 1.698.423 1.648.586 1.581.744 1.497.894 1.4 1.035 1.289 1.167 79.445 79.449 1.139 1.256 1.01 1.359.872 1.448.724 1.524.571 1.586.411 1.633.249 1.664.083 1.68v406.067l-.097 1.812-.289 1.793-.478 1.753-.663 1.694-.839 1.618-1.006 1.522-1.163 1.41-1.307 1.284-1.436 1.142-1.55.988-1.646.824-1.726.651-1.785.47-1.825.283-1.845.095H79l-1.845-.095-1.826-.283-1.785-.47-1.725-.651-1.647-.824-1.549-.988-1.437-1.142-1.306-1.284-1.163-1.41-1.007-1.522-.839-1.618-.662-1.694-.478-1.753-.289-1.793-.097-1.812V0l.097-1.813.289-1.792.478-1.753.662-1.695.839-1.617 1.007-1.522 1.163-1.411 1.306-1.283 1.437-1.142 1.549-.989 1.647-.824 1.725-.65 1.785-.47 1.826-.284L79-17.34h273.656l1.751.086zM79 0v485.516h353.102V79.449L352.656 0H79z"/></g><defs><linearGradient id="_Linear1" x1="0" y1="0" x2="1" y2="0" gradientUnits="userSpaceOnUse" gradientTransform="matrix(0 -485.516 692.079 0 255.551 485.516)"><stop offset="0" stop-color="#7826e7"/><stop offset=".16" stop-color="#5218a0"/><stop offset=".35" stop-color="#330d65"/><stop offset="1" stop-color="#270950"/></linearGradient></defs></svg>

<?xml version="1.0" encoding="UTF-8" standalone="no"?>
<!DOCTYPE svg PUBLIC "-//W3C//DTD SVG 1.1//EN" "http://www.w3.org/Graphics/SVG/1.1/DTD/svg11.dtd">
<svg width="100%" height="100%" viewBox="0 0 16 16" version="1.1" xmlns="http://www.w3.org/2000/svg" xmlns:xlink="http://www.w3.org/1999/xlink" xml:space="preserve" xmlns:serif="http://www.serif.com/" style="fill-rule:evenodd;clip-rule:evenodd;stroke-linejoin:round;stroke-miterlimit:2;">
    <g id="Sibelius-Icon" serif:id="Sibelius Icon" transform="matrix(0.0283205,0,0,0.0288353,0.762683,1)">
        <path d="M432.102,485.516L79,485.516L79,0L352.656,0L432.102,79.449L432.102,485.516Z" style="fill:url(#_Linear1);fill-rule:nonzero;"/>
        <clipPath id="_clip2">
            <path d="M432.102,485.516L79,485.516L79,0L352.656,0L432.102,79.449L432.102,485.516Z" clip-rule="nonzero"/>
        </clipPath>
        <g clip-path="url(#_clip2)">
            <path d="M352.656,0L352.656,79.449L432.102,79.449L352.656,0Z" style="fill:rgb(120,38,231);fill-rule:nonzero;"/>
            <path d="M353.225,-15.596L353.932,-15.555L354.638,-15.484L355.339,-15.382L356.035,-15.249L356.724,-15.086L357.406,-14.892L358.077,-14.67L358.738,-14.417L359.387,-14.137L360.022,-13.828L360.643,-13.491L361.248,-13.128L361.836,-12.738L362.405,-12.323L362.955,-11.884L363.485,-11.421L363.993,-10.935L443.438,68.514L443.92,69.018L444.379,69.542L444.813,70.086L445.223,70.648L445.607,71.227L445.964,71.822L446.294,72.432L446.597,73.056L446.871,73.693L447.116,74.341L447.331,74.998L447.517,75.665L447.672,76.339L447.797,77.019L447.891,77.704L447.955,78.392L447.987,79.082L447.988,79.774L447.957,80.464L447.896,81.152L447.804,81.838L447.681,82.518L447.527,83.192L447.343,83.859L447.13,84.518L446.886,85.166L446.614,85.804L446.314,86.428L445.985,87.039L445.629,87.636L445.247,88.216L444.839,88.779L444.406,89.324L443.949,89.849L443.468,90.354L442.966,90.837L442.442,91.299L441.897,91.737L441.334,92.15L440.752,92.539L440.154,92.903L439.54,93.24L438.911,93.55L438.268,93.832L437.614,94.086L436.949,94.311L436.274,94.507L435.591,94.674L434.902,94.811L434.206,94.918L433.507,94.994L432.805,95.04L432.102,95.055L352.656,95.055L351.943,95.039L351.232,94.992L350.523,94.914L349.819,94.804L349.12,94.664L348.429,94.493L347.746,94.291L347.073,94.06L346.411,93.799L345.762,93.51L345.127,93.192L344.506,92.846L343.903,92.473L343.317,92.075L342.749,91.65L342.202,91.202L341.676,90.729L341.171,90.234L340.69,89.717L340.233,89.179L339.801,88.622L339.395,88.046L339.016,87.453L338.664,86.844L338.34,86.22L338.045,85.583L337.78,84.933L337.544,84.272L337.339,83.601L337.165,82.922L337.022,82.236L336.91,81.544L336.831,80.848L336.783,80.149L336.767,79.449L336.767,0L336.782,-0.696L336.83,-1.391L336.909,-2.083L337.019,-2.771L337.161,-3.453L337.333,-4.129L337.536,-4.796L337.769,-5.454L338.031,-6.101L338.323,-6.736L338.643,-7.357L338.991,-7.964L339.367,-8.554L339.768,-9.128L340.196,-9.684L340.648,-10.22L341.124,-10.736L341.623,-11.231L342.144,-11.703L342.687,-12.152L343.248,-12.576L343.829,-12.976L344.427,-13.35L345.042,-13.697L345.672,-14.017L346.315,-14.309L346.972,-14.573L347.639,-14.808L348.317,-15.013L349.003,-15.188L349.697,-15.333L350.396,-15.447L351.1,-15.531L351.807,-15.584L352.516,-15.605L353.225,-15.596ZM352.656,79.449L432.102,79.449L352.656,0L352.656,79.449Z"/>
            <g id="Sibelius" transform="matrix(19.2971,0,0,18.9525,101.256,124.002)">
                <g transform="matrix(9.00035,0,0,9.36574,4.4765,10.3402)">
                    <path d="M0.47,-0.943C0.503,-0.943 0.53,-0.916 0.53,-0.861C0.53,-0.75 0.435,-0.66 0.356,-0.591C0.353,-0.589 0.351,-0.587 0.349,-0.587C0.346,-0.587 0.344,-0.591 0.343,-0.599C0.339,-0.625 0.337,-0.659 0.337,-0.691C0.337,-0.847 0.409,-0.943 0.47,-0.943ZM0.43,-0.103C0.428,-0.114 0.429,-0.117 0.437,-0.117L0.441,-0.117C0.522,-0.11 0.589,-0.042 0.589,0.046C0.589,0.109 0.551,0.16 0.495,0.188C0.49,0.19 0.487,0.192 0.485,0.192C0.481,0.192 0.48,0.189 0.479,0.182L0.43,-0.103ZM0.361,-0.262C0.364,-0.243 0.364,-0.244 0.346,-0.238C0.258,-0.208 0.201,-0.129 0.201,-0.044C0.201,0.046 0.248,0.11 0.316,0.133C0.324,0.136 0.336,0.139 0.343,0.139C0.351,0.139 0.355,0.134 0.355,0.128C0.355,0.121 0.347,0.118 0.34,0.115C0.298,0.097 0.268,0.054 0.268,0.008C0.268,-0.049 0.307,-0.092 0.368,-0.109C0.373,-0.11 0.377,-0.111 0.38,-0.111C0.385,-0.111 0.387,-0.108 0.388,-0.101L0.438,0.197C0.44,0.208 0.439,0.208 0.424,0.211C0.408,0.214 0.388,0.216 0.368,0.216C0.193,0.216 0.08,0.119 0.08,-0.02C0.08,-0.19 0.205,-0.296 0.326,-0.394C0.33,-0.397 0.333,-0.399 0.335,-0.399C0.338,-0.399 0.339,-0.396 0.34,-0.39L0.361,-0.262ZM0.376,-0.415C0.374,-0.427 0.376,-0.428 0.382,-0.434C0.49,-0.535 0.572,-0.662 0.572,-0.815C0.572,-0.902 0.548,-0.988 0.507,-1.048C0.492,-1.07 0.466,-1.098 0.455,-1.098C0.441,-1.098 0.41,-1.072 0.39,-1.05C0.316,-0.968 0.292,-0.843 0.292,-0.739C0.292,-0.681 0.299,-0.616 0.306,-0.575C0.308,-0.563 0.309,-0.561 0.297,-0.551C0.153,-0.432 0,-0.289 0,-0.087C0,0.087 0.119,0.252 0.364,0.252C0.387,0.252 0.413,0.25 0.433,0.246C0.437,0.245 0.439,0.245 0.441,0.245C0.445,0.245 0.447,0.247 0.448,0.255C0.46,0.322 0.475,0.409 0.475,0.456C0.475,0.604 0.375,0.622 0.316,0.622C0.262,0.622 0.236,0.606 0.236,0.593C0.236,0.586 0.245,0.583 0.268,0.576C0.299,0.567 0.335,0.54 0.335,0.482C0.335,0.427 0.3,0.38 0.239,0.38C0.172,0.38 0.132,0.433 0.132,0.495C0.132,0.56 0.171,0.658 0.322,0.658C0.389,0.658 0.519,0.628 0.519,0.458C0.519,0.401 0.501,0.306 0.49,0.244C0.488,0.232 0.489,0.233 0.503,0.227C0.604,0.187 0.671,0.102 0.671,-0.011C0.671,-0.139 0.577,-0.252 0.43,-0.252C0.404,-0.252 0.404,-0.252 0.401,-0.27L0.376,-0.415Z" style="fill:white;fill-rule:nonzero;"/>
                </g>
                <g transform="matrix(1.00853,0,0,1.00853,-0.351704,-0.213157)">
                    <path d="M8.286,1C12.307,1 15.572,4.265 15.572,8.286C15.572,12.307 12.307,15.572 8.286,15.572C4.265,15.572 1,12.307 1,8.286C1,4.265 4.265,1 8.286,1ZM8.286,1.794C11.869,1.794 14.779,4.703 14.779,8.286C14.779,11.869 11.869,14.779 8.286,14.779C4.703,14.779 1.794,11.869 1.794,8.286C1.794,4.703 4.703,1.794 8.286,1.794Z" style="fill:white;"/>
                </g>
            </g>
        </g>
        <path d="M354.407,-17.254L356.14,-16.999L357.838,-16.576L359.486,-15.99L361.067,-15.246L362.564,-14.352L363.964,-13.317L365.253,-12.15L444.698,67.299L445.837,68.555L446.847,69.914L447.719,71.362L448.443,72.886L449.014,74.472L449.425,76.105L449.674,77.769L449.757,79.449L449.757,485.516L449.66,487.328L449.371,489.121L448.893,490.874L448.23,492.568L447.391,494.186L446.385,495.708L445.222,497.118L443.915,498.402L442.479,499.544L440.929,500.532L439.283,501.356L437.557,502.007L435.772,502.477L433.947,502.76L432.102,502.855L79,502.855L77.155,502.76L75.329,502.477L73.544,502.007L71.819,501.356L70.172,500.532L68.623,499.544L67.186,498.402L65.88,497.118L64.717,495.708L63.71,494.186L62.871,492.568L62.209,490.874L61.731,489.121L61.442,487.328L61.345,485.516L61.345,0L61.442,-1.813L61.731,-3.605L62.209,-5.358L62.871,-7.053L63.71,-8.67L64.717,-10.192L65.88,-11.603L67.186,-12.886L68.623,-14.028L70.172,-15.017L71.819,-15.841L73.544,-16.491L75.329,-16.961L77.155,-17.245L79,-17.34L352.656,-17.34L354.407,-17.254ZM79,0L79,485.516L432.102,485.516L432.102,79.449L352.656,0L79,0Z"/>
    </g>
    <defs>
        <linearGradient id="_Linear1" x1="0" y1="0" x2="1" y2="0" gradientUnits="userSpaceOnUse" gradientTransform="matrix(3.02697e-14,-485.516,692.079,4.1621e-14,255.551,485.516)"><stop offset="0" style="stop-color:rgb(120,38,231);stop-opacity:1"/><stop offset="0.16" style="stop-color:rgb(82,24,160);stop-opacity:1"/><stop offset="0.35" style="stop-color:rgb(51,13,101);stop-opacity:1"/><stop offset="1" style="stop-color:rgb(39,9,80);stop-opacity:1"/></linearGradient>
    </defs>
</svg>
